raw-svg/info-circle.svg

<svg viewBox="0 0 24 24" xmlns="http://www.w3.org/2000/svg"><path d="m12 16.75a.76.76 0 0 1 -.75-.75v-5a.75.75 0 0 1 1.5 0v5a.76.76 0 0 1 -.75.75z"/><path d="m12 9.25a.76.76 0 0 1 -.75-.75v-.5a.75.75 0 0 1 1.5 0v.5a.76.76 0 0 1 -.75.75z"/><path d="m12 21a9 9 0 1 1 9-9 9 9 0 0 1 -9 9zm0-16.5a7.5 7.5 0 1 0 7.5 7.5 7.5 7.5 0 0 0 -7.5-7.5z"/></svg>

<svg xmlns="http://www.w3.org/2000/svg" viewBox="0 0 24 24"><g id="info-circle"><path d="M12,16.75a.76.76,0,0,1-.75-.75V11a.75.75,0,0,1,1.5,0v5A.76.76,0,0,1,12,16.75Z"/><path d="M12,9.25a.76.76,0,0,1-.75-.75V8a.75.75,0,0,1,1.5,0v.5A.76.76,0,0,1,12,9.25Z"/><path d="M12,21a9,9,0,1,1,9-9A9,9,0,0,1,12,21ZM12,4.5A7.5,7.5,0,1,0,19.5,12,7.5,7.5,0,0,0,12,4.5Z"/></g></svg>
